X: 10212
Q: "Moderate."
U: p=!crescendo(!
U: P=!crescendo)!
U: Q=!diminuendo(!
U: q=!diminuendo)!
M: 2/4
L: 1/16
K: Bb
!p!(3FGA) |\
.B2.d2 .B2z(d/c/) | .B2.d2 .B2z(d/e/) |\
f2d2B2F2 | G7 (3(F/G/A/) |"^cres."\
.B2.d2 .B2z(d/B/) | .B.B.d.d B2(de) |\
!pp!.[f2d2].[f2d2].[f2d2].[f2d2] | B7 :|\
(3(B/c/d/) |"cres."\
e3fg3e | f3ed3f |\
{d}e3d f3F | G7 (3(F/G/A/) |
!p!.B2.d2 .B2z(d/c/) | .B.B.d.d (d2de) |\
!pp!.[f2d2].[f2d2].[f2d2].[f2d2] | B7 \
(3(B/c/d) |"cres."\
e3fg3e | {d}b3gf2d2 |\
f2d2B2F2 | G7 (3(F/G/A/) |!f!\
Qf3d Tc4 {Bc}| qB6 |]


